X: 1
T: Gan Ainm
M: 4/4
L: 1/8
R: reel
K: Ador
|:e2 A2 ABcA|(3BBB BA GA (3BAG|e2 A2 ABcA|BAGB A2 A2:|
|:A2 e2 efge|(3agf ef gedB|A2 e2 efge|(3agf eg f4:|
|:a2 e2 efge|f2 fe defg|a2 e2 efge|fedf e2 e2:|
